Adwaita++/actions/22/go-first-rtl.svg

<svg fill="none" height="22" viewBox="0 0 22 22" width="22" xmlns="http://www.w3.org/2000/svg">
  <g fill="#444">
    <path d="m17.8331 3h-2.6667v16h2.6667z"/>
    <path d="m14.4167 11-7.62503 7.625c-.26116.2612-.61751.375-.95834.375h-1.33333v-1.3333c0-.3409.11387-.6972.375-.9584l5.7083-5.7083-5.7083-5.70833c-.26116-.26116-.375-.61751-.375-.95834v-1.33333h1.33333c.34083 0 .69718.11387.95834.375z"/>
  </g>
</svg>

<svg xmlns="http://www.w3.org/2000/svg" fill="none" width="22" height="22" viewBox="0 0 22 22">
 <path fill="#444" d="M17.8331 3H15.1664V19H17.8331V3Z"/>
 <path fill="#444" d="M14.4167 11L6.79167 18.625C6.53051 18.8862 6.17416 19 5.83333 19H4.5V17.6667C4.5 17.3258 4.61387 16.9695 4.875 16.7083L10.5833 11L4.875 5.29167C4.61384 5.03051 4.5 4.67416 4.5 4.33333V3H5.83333C6.17416 3 6.53051 3.11387 6.79167 3.375L14.4167 11Z"/>
</svg>
